X:1
T:Fredmans Sang nr. 9
T:Fredmans Sang nr. 9
T:Halfdan Kjerulf
T:C. M. Bellman
C:Halfdan Kjerulf
Z:C. M. Bellman
%%score [ 1 2 3 4 ]
L:1/8
Q:1/4=90
M:4/4
K:Bb
V:1 treble-8 nm="Tenor"
V:2 treble-8 nm="Tenor"
V:3 bass nm="Bass"
V:4 bass nm="Bass"
V:1
!mf!"^Alla marcia" f3/2 e/ | d2 d3/2 e/ c2 c3/2 d/ | B2 B3/2 B/ B2 d3/2 e/ | f2 e d g f e d | %4
w: 1.Nå öd-|mju- ka- ste tje- na- re|gun- stig herr värd! klang, en|klunk up- på skin- kan in- nan|
w: 2.Sill- sa-|la- ten för- träff- lig med|äpp- len och lök! de- li-|ciös den kal- ko- nen i sin|
 c2 c3/2 c/ c2 A3/2 B/ | c c B A (f=e) (dc) | B2!p!!<(! G3/2 G/ G2!<)! =e e | f c d B A2 G2 | %8
w: ste- ken blir skärd! hvad den|sop- pan den var de- * li- *|kat, u- tan flärd, och de|fri- ka- del- ler- na char-|
w: flot- ti- ga rök! ma- ken|brin- ga näpp- lig fins _ i _|ko- nun- gens kök! rå- ga|mer i gla- sen och den|
 F2 F3/2 F/ F2 :| z2 |: c2!<(! c3/2 c/ d2 d2!<)! | e2 c3/2 c/ c2 f3/2 e/ | (ed) c d e d c B | %13
w: man- ta herr värd!||Samt- li- ge vän- ner|kring den- na bal! ha den|ä- * ran vid Fru vär- din- nans|
w: punsch- en för- sök!|||||
 c2 F3/2 F/ F2 f3/2 e/ | d2 d3/2 d/ c2 c3/2 c/ | B2 B3/2 B/!<(! B2 c2!<)! | d3/2 e/ f3/2 g/ d2 c2 | %17
w: skål bu- ga oss Nå öd-|mju- ka- ste tje- na- re|gun- stig herr värd. den|skå- len blir dig till- känd,|
w: ||||
 B2 B3/2 B/ B2 :| %18
w: tömt och för- ärd.|
w: |
V:2
!mf! d3/2 c/ | B2 B3/2 c/ F2 F3/2 F/ | D2 D3/2 D/ D2 B3/2 c/ | d2 c B G d c B | %4
w: 1.Nå öd-|mju- ka- ste tje- na- re|gun- stig herr värd! klang, en|klunk up- på skin- kan in- nan|
w: 2.Sill- sa-|la- ten för- träff- lig med|äpp- len och lök! de- li-|ciös den kal- ko- nen i sin|
 A2 A3/2 A/ A2 F3/2 G/ | A A G F c2 BA | G2!p!!<(! B3/2 B/ B2!<)! B B | A c F G A2 (cB) | %8
w: ste- ken blir skärd! hvad den|sop- pan den var de- li- *|kat, u- tan flärd, och de|fri- ka- del- ler- na char- *|
w: flot- ti- ga rök! ma- ken|brin- ga näpp- lig fins i _|ko- nun- gens kök! rå- ga|mer i gla- sen och den _|
 A2 A3/2 A/ A2 :| z2 |: A2!<(! A3/2 A/ c2 =B2!<)! | c2 G3/2 G/ G2 d3/2 c/ | (cB) A _A G F F F | %13
w: man- ta herr värd!||Samt- li- ge vän- ner|kring den- na bal! ha den|ä- * ran vid Fru vär- din- nans|
w: punsch- en för- sök!|||||
 F2 F3/2 F/ F2 F3/2 A/ | B2 B3/2 B/ B2 A3/2 A/ | G2 B3/2 B/!<(! B2 A2!<)! | B3/2 B/ B3/2 B/ B2 e2 | %17
w: skål bu- ga oss Nå öd-|mju- ka- ste tje- na- re|gun- stig herr värd. den|skå- len blir dig till- känd,|
w: ||||
 d2 d3/2 d/ d2 :| %18
w: tömt och för- ärd.|
w: |
V:3
!mf! F,3/2 F,/ | F,2 F,3/2 F,/ A,2 A,3/2 A,/ | F,2 F,3/2 F,/ F,2 F,3/2 F,/ | %3
w: 1.Nå öd-|mju- ka- ste tje- na- re|gun- stig herr värd! klang, en|
w: 2.Sill- sa-|la- ten för- träff- lig med|äpp- len och lök! de- li-|
 F,2 F, F, E, E, E, G, | F,2 A,3/2 C/ F,2 F,3/2 F,/ | F, F, F, F, F,2 F,2 | %6
w: klunk up- på skin- kan in- nan|ste- ken blir skärd! hvad den|sop- pan den var de- li-|
w: ciös den kal- ko- nen i sin|flot- ti- ga rök! ma- ken|brin- ga näpp- lig fins i|
 F,2!p!!<(! =E,3/2 E,/ E,2!<)! G, G, | F, F, F, F, F,2 =E,2 | F,2 F,3/2 F,/ F,2 :| z2 |: %10
w: kat, u- tan flärd, och de|fri- ka- del- ler- na char-|man- ta herr värd!||
w: ko- nun- gens kök! rå- ga|mer i gla- sen och den|punsch- en för- sök!||
 F,2!<(! F,3/2 F,/ _A,2 G,2!<)! | G,2 E,3/2 E,/ E,2 =A,3/2 F,/ | F,2 F, F, B, B, A, B, | %13
w: Samt- li- ge vän- ner|kring den- na bal! ha den|ä- ran vid Fru vär- din- nans|
w: |||
 A,2 F,3/2 F,/ F,2 F,3/2 F,/ | F,2 F,3/2 F,/ F,2 A,3/2 F,/ | B,2 A,3/2 G,/!<(! F,2 F,2!<)! | %16
w: skål bu- ga oss Nå öd-|mju- ka- ste tje- na- re|gun- stig herr värd. den|
w: |||
 F,3/2 B,/ B,3/2 G,/ F,2 F,2 | F,2 F,3/2 F,/ F,2 :| %18
w: skå- len blir dig till- känd,|tömt och för- ärd.|
w: ||
V:4
!mf! B,,3/2 B,,/ | B,,2 B,,3/2 B,,/ F,2 F,3/2 F,/ | B,,2 D,3/2 D,/ B,,2 B,,3/2 B,,/ | %3
w: 1.Nå öd-|mju- ka- ste tje- na- re|gun- stig herr värd! klang, en|
w: 2.Sill- sa-|la- ten för- träff- lig med|äpp- len och lök! de- li-|
 B,,2 C, D, E, E, E, =E, | F,2 F,3/2 F,/ F,2 F,3/2 F,/ | F, F, F, F, A,,2 (B,,C,) | %6
w: klunk up- på skin- kan in- nan|ste- ken blir skärd! hvad den|sop- pan den var de- li- *|
w: ciös den kal- ko- nen i sin|flot- ti- ga rök! ma- ken|brin- ga näpp- lig fins i _|
 G,,2!p!!<(! C,3/2 C,/ C,2!<)! ^C, C, | D, A,, B,, D, =C,2 C,2 | F,2 C,3/2 A,,/ F,,2 :| z2 |: %10
w: kat, u- tan flärd, och de|fri- ka- del- ler- na char-|man- ta herr värd!||
w: ko- nun- gens kök! rå- ga|mer i gla- sen och den|punsch- en för- sök!||
 F,2!<(! F,3/2 F,/ F,2 G,2!<)! | C,2 E,3/2 G,/ C,2 F,,3/2 A,,/ | B,,2 B,, B,, B,, B,, E, D, | %13
w: Samt- li- ge vän- ner|kring den- na bal! ha den|ä- ran vid Fru vär- din- nans|
w: |||
 F,2 F,3/2 F,/ (F,E,) D,3/2 C,/ | B,,2 B,,3/2 D,/ F,2 F,3/2 F,/ | G,2 F,3/2 E,/!<(! D,2 F,2!<)! | %16
w: skål bu- ga oss _ Nå öd-|mju- ka- ste tje- na- re|gun- stig herr värd. den|
w: |||
 B,,3/2 G,/ D,3/2 E,/ F,2 F,,2 | B,,2 D,3/2 F,/ B,,2 :| %18
w: skå- len blir dig till- känd,|tömt och för- ärd.|
w: ||

